art/standard/gamepad/ouya/righttrigger.svg

<svg width="100px" height="100px" preserveAspectRatio="none" version="1.1" viewBox="0 0 100 100" xmlns="http://www.w3.org/2000/svg">
 <g id="OUYA">
  <g>
   <path d="m85.95 64.6c5.1667-5.6333 7.4167-13.767 6.75-24.4-0.7-10.667-4.6333-16.8-11.8-18.4-17.633-2.0667-38.967 0.01667-64 6.25-6.2333 2.4-9.45 8.65-9.65 18.75 0.13333 3 0.33333 5.9 0.6 8.7 0.83333 5.9667 2.2833 11.45 4.35 16.45 1.3 3.2 3.4 5.4 6.3 6.6 14.633 0.9 29.167 0.18333 43.6-2.15 10.733-2.2 18.683-6.1333 23.85-11.8" fill="#1e1e1e"/>
   <path d="m84.25 49c1.8333-3.5667 2.6833-7.5 2.55-11.8-0.1-4.3-2.0167-7.4-5.75-9.3-18.5-1.3667-37.517 0.63333-57.05 6-2.7 1.1333-3.9833 4.3-3.85 9.5l1.7 11 1.4 6.35c0.63333 2.7333 2.4667 4.3333 5.5 4.8 18.567-0.26667 30.6-0.98333 36.1-2.15 5.4667-1.2 9.6-3 12.4-5.4 2.8-2.4667 5.1333-5.4667 7-9" fill="#3b3b3b"/>
   <path d="m38.9 39.3q-0.55-0.75-1.35-1.1-0.7-0.35-1.7-0.35-1-0.05-2.05 0.2l-5.35 1 1.45 14.15 3.05-0.55-0.6-5.65 1.55-0.3 3.45 5.05 3.7-0.7-4.15-5.3q1.45-0.55 2.05-1.75 0.7-1.2 0.55-2.7-0.15-1.25-0.6-2m-2.6 2.6q0.05 0.6-0.15 0.9-0.2 0.4-0.55 0.65-0.4 0.2-0.8 0.3-0.5 0.15-0.9 0.25l-1.8 0.35-0.35-3.2 2.05-0.4q0.35-0.1 0.8-0.15 0.45 0 0.8 0.1t0.6 0.35q0.25 0.35 0.3 0.85m8.6-6q-0.85 0.45-1.45 1.15-0.65 0.6-0.95 1.55-0.3 0.85-0.25 2l2.95-0.4q0.05-0.75 0.45-1.35 0.35-0.65 1.2-0.8 0.7-0.15 1.25 0.15 0.55 0.35 0.6 1.05 0.1 0.65-0.3 1.2-0.35 0.6-0.7 1.05l-4.9 5.95 0.35 3.2 9.65-1.9-0.3-2.65-6.1 1.2 3.85-4.5q0.35-0.4 0.6-0.9 0.3-0.4 0.5-0.9t0.3-1.1q0.1-0.55 0-1.25-0.1-1.05-0.5-1.8-0.45-0.7-1.15-1.15-0.65-0.4-1.5-0.5-0.8-0.1-1.8 0.05-0.95 0.2-1.8 0.65z" fill="#8C8C8C"/>
  </g>
  <path d="m81.05 27.9q5.6 2.85 5.75 9.3 0.2 6.45-2.55 11.8-2.8 5.3-7 9-4.2 3.6-12.4 5.4-8.25 1.75-36.1 2.15-4.55-0.7-5.5-4.8l-1.4-6.35-1.7-11q-0.2-7.8 3.85-9.5 29.3-8.05 57.05-6z" fill="none" stroke="#4F4F4F" stroke-linecap="round" stroke-linejoin="round" stroke-width="4"/>
  <path d="m62.1 76.4q16.1-3.3 23.85-11.8 7.75-8.45 6.75-24.4-1.05-16-11.8-18.4-26.45-3.1-64 6.25-9.35 3.6-9.65 18.75 0.2 4.5 0.6 8.7 1.25 8.95 4.35 16.45 1.95 4.8 6.3 6.6 21.95 1.35 43.6-2.15z" fill="none" stroke="#000" stroke-linecap="round" stroke-linejoin="round" stroke-width="5"/>
 </g>
</svg>

<svg xmlns="http://www.w3.org/2000/svg" version="1.1" xmlns:xlink="http://www.w3.org/1999/xlink" preserveAspectRatio="none" x="0px" y="0px" width="100px" height="100px" viewBox="0 0 100 100">
<defs/>

<g id="OUYA">
<g>
<g>
<g>
<path fill="#1E1E1E" stroke="none" d="
M 85.95 64.6
Q 93.7 56.15 92.7 40.2 91.65 24.2 80.9 21.8 54.45 18.7 16.9 28.05 7.55 31.65 7.25 46.8 7.45 51.3 7.85 55.5 9.1 64.45 12.2 71.95 14.15 76.75 18.5 78.55 40.45 79.9 62.1 76.4 78.2 73.1 85.95 64.6
M 86.8 37.2
Q 87 43.65 84.25 49 81.45 54.3 77.25 58 73.05 61.6 64.85 63.4 56.6 65.15 28.75 65.55 24.2 64.85 23.25 60.75
L 21.85 54.4 20.15 43.4
Q 19.95 35.6 24 33.9 53.3 25.85 81.05 27.9 86.65 30.75 86.8 37.2 Z"/>

<path fill="#3B3B3B" stroke="none" d="
M 84.25 49
Q 87 43.65 86.8 37.2 86.65 30.75 81.05 27.9 53.3 25.85 24 33.9 19.95 35.6 20.15 43.4
L 21.85 54.4 23.25 60.75
Q 24.2 64.85 28.75 65.55 56.6 65.15 64.85 63.4 73.05 61.6 77.25 58 81.45 54.3 84.25 49
M 43.45 37.05
Q 44.05 36.35 44.9 35.9 45.75 35.45 46.7 35.25 47.7 35.1 48.5 35.2 49.35 35.3 50 35.7 50.7 36.15 51.15 36.85 51.55 37.6 51.65 38.65 51.75 39.35 51.65 39.9 51.55 40.5 51.35 41 51.15 41.5 50.85 41.9 50.6 42.4 50.25 42.8
L 46.4 47.3 52.5 46.1 52.8 48.75 43.15 50.65 42.8 47.45 47.7 41.5
Q 48.05 41.05 48.4 40.45 48.8 39.9 48.7 39.25 48.65 38.55 48.1 38.2 47.55 37.9 46.85 38.05 46 38.2 45.65 38.85 45.25 39.45 45.2 40.2
L 42.25 40.6
Q 42.2 39.45 42.5 38.6 42.8 37.65 43.45 37.05
M 37.55 38.2
Q 38.35 38.55 38.9 39.3 39.35 40.05 39.5 41.3 39.65 42.8 38.95 44 38.35 45.2 36.9 45.75
L 41.05 51.05 37.35 51.75 33.9 46.7 32.35 47 32.95 52.65 29.9 53.2 28.45 39.05 33.8 38.05
Q 34.85 37.8 35.85 37.85 36.85 37.85 37.55 38.2
M 36.15 42.8
Q 36.35 42.5 36.3 41.9 36.25 41.4 36 41.05 35.75 40.8 35.4 40.7 35.05 40.6 34.6 40.6 34.15 40.65 33.8 40.75
L 31.75 41.15 32.1 44.35 33.9 44
Q 34.3 43.9 34.8 43.75 35.2 43.65 35.6 43.45 35.95 43.2 36.15 42.8 Z"/>

<path fill="#8C8C8C" stroke="none" d="
M 38.9 39.3
Q 38.35 38.55 37.55 38.2 36.85 37.85 35.85 37.85 34.85 37.8 33.8 38.05
L 28.45 39.05 29.9 53.2 32.95 52.65 32.35 47 33.9 46.7 37.35 51.75 41.05 51.05 36.9 45.75
Q 38.35 45.2 38.95 44 39.65 42.8 39.5 41.3 39.35 40.05 38.9 39.3
M 36.3 41.9
Q 36.35 42.5 36.15 42.8 35.95 43.2 35.6 43.45 35.2 43.65 34.8 43.75 34.3 43.9 33.9 44
L 32.1 44.35 31.75 41.15 33.8 40.75
Q 34.15 40.65 34.6 40.6 35.05 40.6 35.4 40.7 35.75 40.8 36 41.05 36.25 41.4 36.3 41.9
M 44.9 35.9
Q 44.05 36.35 43.45 37.05 42.8 37.65 42.5 38.6 42.2 39.45 42.25 40.6
L 45.2 40.2
Q 45.25 39.45 45.65 38.85 46 38.2 46.85 38.05 47.55 37.9 48.1 38.2 48.65 38.55 48.7 39.25 48.8 39.9 48.4 40.45 48.05 41.05 47.7 41.5
L 42.8 47.45 43.15 50.65 52.8 48.75 52.5 46.1 46.4 47.3 50.25 42.8
Q 50.6 42.4 50.85 41.9 51.15 41.5 51.35 41 51.55 40.5 51.65 39.9 51.75 39.35 51.65 38.65 51.55 37.6 51.15 36.85 50.7 36.15 50 35.7 49.35 35.3 48.5 35.2 47.7 35.1 46.7 35.25 45.75 35.45 44.9 35.9 Z"/>
</g>
</g>

<g>
<path stroke="#4F4F4F" stroke-width="4" stroke-linejoin="round" stroke-linecap="round" fill="none" d="
M 81.05 27.9
Q 86.65 30.75 86.8 37.2 87 43.65 84.25 49 81.45 54.3 77.25 58 73.05 61.6 64.85 63.4 56.6 65.15 28.75 65.55 24.2 64.85 23.25 60.75
L 21.85 54.4 20.15 43.4
Q 19.95 35.6 24 33.9 53.3 25.85 81.05 27.9 Z"/>
</g>

<g>
<path stroke="#000000" stroke-width="5" stroke-linejoin="round" stroke-linecap="round" fill="none" d="
M 62.1 76.4
Q 78.2 73.1 85.95 64.6 93.7 56.15 92.7 40.2 91.65 24.2 80.9 21.8 54.45 18.7 16.9 28.05 7.55 31.65 7.25 46.8 7.45 51.3 7.85 55.5 9.1 64.45 12.2 71.95 14.15 76.75 18.5 78.55 40.45 79.9 62.1 76.4 Z"/>
</g>
</g>
</g>
</svg>
